X: 1
T: Amoskeag Waltz
C: \251 Sandy Lafleur 2010
M: 3/4
L: 1/8
S: printed MS from Paul Milde, which he said was from Sandy
N: www.wanderingdulcimer.com ~ Amherst, NH ~ 1-603-673-8497 ~ strumma:aol.com
Z: 2010 John Chambers <jc:trillian.mit.edu>
K: D
|: DE \
| "D"F3 ^E FG |     F2 E2 D2 |     F2 A3 B |    A4 DE \
|    F3 ^E FG |     F2 E2 D2 | "A7"E3 D EF |    E4 DF |
| "D"A3 ^G AB | "D7"A2 F2 D2 |  "G"G3 A B2 | "D"A4 DE \
|    F4    F2 | "A7"E2 G2 F2 | "D"D3  CDE  |    D4   :|
|: A2 \
| "G"B4   Bc |     d2 c2 B2 | "D"A3 B AF |     D4 A2 \
| "G"B3 A Bc | "E7"d2 c2 d2 | "A"e6-     |     e4 A2 |
| "G"B4   Bc |     d2 c2 B2 | "D"A3 B AF | "Bm"D4 DE \
| "D"F4   F2 | "A7"E2 G2 F2 | "D"D3 CDE  |     D4   :|
